svgs/sharp-solid/square-arrow-up-left.svg

<svg xmlns="http://www.w3.org/2000/svg" viewBox="0 0 448 512"><!--! Font Awesome Pro 6.6.0 by @fontawesome - https://fontawesome.com License - https://fontawesome.com/license (Commercial License) Copyright 2024 Fonticons, Inc. --><path d="M448 32L0 32 0 480l448 0 0-448zM136 144l152 0 24 0 0 48-24 0-94.1 0L329 327l17 17L312 377.9l-17-17-135-135L160 328l0 24-48 0 0-24 0-160 0-24 24 0z"/></svg>

<svg xmlns="http://www.w3.org/2000/svg" viewBox="0 0 448 512"><!--! Font Awesome Pro 6.4.0 by @fontawesome - https://fontawesome.com License - https://fontawesome.com/license (Commercial License) Copyright 2023 Fonticons, Inc. --><path d="M448 32H0V480H448V32zM136 144H288h24v48H288 193.9L329 327l17 17L312 377.9l-17-17-135-135V328v24H112V328 168 144h24z"/></svg>
